X:77
T:I Get A Kick Out Of You
C:(Cole Porter)
N:TablEdited by Bob Jackson
L:1/8
Q:1/4=120
M:4/4
K:G
"I Get A Kick Out"B/d/f/=f/ ^f/g/^g/a/ ^a=g/e/ ^c/=c/B/^A/ | A/4c/4e/4a/d'/c'/b/a/g/f/e/d/^d/e/c/A/F3/4 | 
z/4EE/FGA3/2A/Bcd/4 | z3/4g/f/d/B/G/FDE/D/B,/^A,/=A,3/4 | z/A,/B,/C/ E/D/C/D/ E/G/A/d/ ^c/=c/A/B/4d/4 | 
f/4g/f/d/B/G/F/D/E/D/B,/A,/G,/^G,/A,A,/4 | C/4E/4G/4A/4c/4e/4a/ g/f/d/e/4g/4 a/d'/^c'/=c'/ bg/d/ | 
e/d/^A/B/ d/e/B/d/ A/B/A/=A/ c/e/g/b/ | a/g/a/b/ c'/e/g/e/ f/d'd'/ d'/d'd'/ | 
d'/d'd'/ b/bb/ g/gg/ d/e3/2 | "Tag"dB/G/ E/G/B/d/ ^dc/A/ F/=F/E/^D/ | D/=F/A/c/ e/^d/=d/c/ B4 | 
z8 | z8 | z8 | z8 | z8 | z8 | 


